X: 1
T: Running to Mull
C: Adam Sutherland 2006
%D:2006
R: mixed: reel + kopanica (or gankino)
%S: s:3 b:13()
S: Fiddle Hell Online 2021-11-5 Natalie Haas workshop ("A Contemporary Scottish Tune"}
B: from "The Errogie Collection, Vol.1" \251 Adam Sutherland
Z: 2021 John Chambers <jc:trillian.mit.edu>
M: 6/4
L: 1/8
K: Cm
|:\
"Cm"G,CDC DECE DCDE | G,CEC DECE DCB,C | G,CDC DECE DCDE |\
[1 "Abmaj7"E/F/G GG G2 FE DB,DE :|
[2 "Abmaj7"E/F/G GG G2 FE "Bb"DFdB |]\
[M:11/8] [|\
"Cm7"Bc cG Bcd d2 c2 | de fe dcB d2 c2 | "Cm7"Bc cG Bcd d2 c2 |
de fe dcB "F7sus4"eB FB | "F"=Ac cF Bcd d2 c2 |\
de fe dcB "F7sus4"d2 c2 | "F"=Ac cF Bcd d2 c2 | "Ebmaj7"de fg fed "F7sus4"c2 c2 |]
